src/parts/graphicShirt/Resist.svg

<svg>
  <g
    id="Clothing/Graphic-Shirt"
    transform="translate(0.000000, 170.000000)"
  >
    <defs>
      <path
        id="react-path-1153"
        d="M165.624032,29.2681342 C202.760022,32.1373245 232,63.1798426 232,101.051724 L232,110 L32,110 L32,101.051724 C32,62.8348009 61.7752018,31.5722494 99.3929298,29.1967444 C99.1342224,30.2735458 99,31.3767131 99,32.5 C99,44.3741221 113.998461,54 132.5,54 C151.001539,54 166,44.3741221 166,32.5 C166,31.4015235 165.871641,30.3222877 165.624025,29.2681336 Z"
      />
    </defs>
    <mask
      id="react-mask-1154"
      fill="white"
    >
      <use href="#react-path-1153" />
    </mask>
    <use
      id="Clothes"
      fill="#E6E6E6"
      fill-rule="evenodd"
      href="#react-path-1153"
    />
    <g
      id="Color/Palette/"
      mask="url(#react-mask-1154)"
      fill-rule="evenodd"
      fill="var(--avataaar-shirt-color)"
    >
      <rect
        id="Color"
        x="0"
        y="0"
        width="264"
        height="110"
      />
    </g>
    <g
      id="Clothing/Graphic/Resist"
      stroke-width="1"
      fill-rule="evenodd"
    >
      <g
        id="Resist"
        transform="translate(77.000000, 58.000000)"
      >
        <g transform="translate(3.000000, 9.000000)">
          <path
            id="!"
            d="M102.565245,21.0710109 C99.4833509,20.4054313 97.3728781,24.6059197 100.65303,25.85541 C103.46796,26.9271503 105.497722,21.7103865 102.565245,21.0710109"
            fill="#FFFFFF"
          />
          <path
            id="H"
            d="M101.191001,18 C104.847558,18 103.499462,12.0185653 103.512139,10.034892 C103.52569,7.89835492 105.057378,1.43936922 102.622588,0.300988793 C98.4060734,-1.67043963 99.5622709,6.62567562 99.5876242,8.26886181 C99.6156003,10.0850565 99.7546063,11.9885455 99.3594446,13.7770905 C99.009744,15.3574722 98.2303489,18 101.191001,18"
            fill="#FFFFFF"
          />
          <path
            id="C"
            d="M96.057932,1.97392328 C94.9756601,1.35173361 93.2567577,1.65427333 92.0711316,1.60022061 C90.7220251,1.53916824 89.3807782,1.40539746 88.0356015,1.30662485 C85.8592683,1.14718875 83.080101,0.743543202 80.9175222,1.23857286 C79.6922049,1.51933595 78.5800664,2.46389764 79.1565707,3.84671419 C79.777482,5.33646958 81.4602301,4.95187859 82.7370279,4.87682696 C83.3217848,4.84221766 84.7703158,4.58750876 85.3421043,4.78816493 C86.3390991,5.13853549 85.9154647,4.67967061 86.1430012,5.85522022 C86.491969,7.66229234 86.2825097,9.85512207 86.2675764,11.6929148 C86.2420326,14.8668599 86.2322081,18.0567485 86.1650082,21.2287493 C86.1386784,22.4645735 85.7244756,23.8606116 86.9218911,24.6768466 C87.9196719,25.3569777 89.1379155,24.9023904 89.6550795,23.8835548 C90.1694927,22.8705522 89.6806234,20.8169375 89.6259989,19.6876632 C89.5599779,18.3406226 89.4900272,17.0122476 89.5293254,15.6628738 C89.6330726,12.0775058 89.8110933,8.49563763 89.8971563,4.90910305 C90.8399197,4.95537841 91.8188373,4.92737987 92.7525621,5.05842857 C93.4359574,5.15409023 94.4184119,5.59351169 95.0754775,5.55890239 C96.9743656,5.45818543 97.7689748,2.97175996 96.057932,1.97392328"
            fill="#FFFFFF"
          />
          <path
            id="A"
            d="M67.7216119,8.81264097 C67.7100258,8.75972031 67.6397369,8.1691564 67.7216119,8.81264097 M67.6853088,8.53730013 C67.6887847,8.56222653 67.685695,8.5449698 67.6853088,8.53730013 M69.1169633,5.42725256 C72.533315,1.44593148 73.7004204,9.77441647 76.3625176,9.42199554 C80.623109,8.85827545 75.4217272,2.46944776 73.6942412,1.64649312 C70.1786354,-0.0289443454 67.0886252,1.72587411 65.4167525,4.9126183 C63.3188978,8.91234656 64.6466637,11.6208874 68.6751471,13.3572987 C70.1461943,13.9915796 75.714469,15.8848355 74.2051877,18.3157346 C73.4451402,19.5398125 70.6791544,19.6445033 69.5047111,19.402142 C67.1492591,18.916269 67.5161519,17.3159942 66.3699015,15.8288469 C65.3371947,14.4885737 63.3397528,14.8820273 63.028087,16.6100019 C62.7828481,17.9675319 64.198282,20.0348891 65.1433208,20.9897619 C67.3759602,23.2457927 71.1831493,23.4271802 74.0298516,22.3998291 C78.4155727,20.816811 78.9473743,16.6909168 75.8357368,13.4953526 C74.0870096,11.6995014 71.9026455,11.154572 69.7225296,10.0773681 C67.0781977,8.7712248 67.5725376,7.68673472 69.1169633,5.42725256"
            fill="#FFFFFF"
          />
          <path
            id="E"
            d="M58.749962,20.5676943 C58.1855671,15.7434329 58.0538346,10.8505093 57.9696387,6.00460433 C57.9426476,4.45075032 58.6758373,0.798596322 56.5169562,0.139962235 C53.6023258,-0.749287073 53.9890632,2.83233897 54.0502966,4.30372379 C54.255348,9.21679823 54.8922562,14.0929294 55.1210758,19.0000333 C55.193992,20.5568726 54.6924419,23.5739018 56.9520358,23.9463193 C59.7027058,24.4000865 58.9598476,21.8648117 58.749962,20.5676943"
            fill="#FFFFFF"
          />
          <path
            id="P"
            d="M49.4716454,4.67909741 C47.1120678,1.521124 42.3181606,1.01110068 39.382093,3.92183601 C37.3101733,5.97595969 36.00495,10.8410892 37.9661116,13.3252251 C40.0904751,16.016404 45.3211527,13.6574039 46.6913436,16.7080638 C48.3726748,20.4511421 43.9611374,21.8560762 41.6168232,19.3708027 C40.7738094,18.4774087 40.9581453,16.917382 39.7163241,16.3637507 C37.9539791,15.5788077 36.853443,17.2916519 37.2001979,18.7227508 C38.0479082,22.2235205 41.8524287,24.1130716 45.3011927,23.9947614 C49.0689244,23.8650751 50.7028996,21.0184245 50.4641631,17.5957699 C50.1342371,12.8603265 46.4792204,12.1186123 42.4747091,11.597213 C40.7761576,11.3761397 40.5534673,11.3966165 40.6583549,9.64547322 C40.7855505,7.52650643 42.0277631,5.07763608 44.6491681,5.58159221 C46.7551372,5.98657727 46.942604,9.15327227 49.1037564,9.30040167 C52.5998763,9.53853896 50.3604497,5.86712943 49.4716454,4.67909741"
            fill="#FFFFFF"
          />
          <path
            id="M"
            d="M31.7209696,20.4381695 C30.3835461,20.7580967 28.7579173,20.5355712 27.3944988,20.5112208 C26.3407598,20.4924897 22.8201338,20.9379153 22.1329619,20.2148947 C21.3727026,19.4150766 21.6202201,16.9680453 21.5881973,15.9288437 C21.5422351,14.4753101 21.1839563,14.2599024 22.4595946,13.9298603 C23.2085518,13.7361807 24.3674009,13.8332078 25.1415996,13.7976187 C26.6572206,13.727939 28.606845,14.008531 30.0716062,13.7099572 C31.4414292,13.4304891 32.5739067,11.958599 31.3223797,10.7058628 C30.4355361,9.81763391 28.7797682,10.2949024 27.6909924,10.3200021 C25.6573553,10.3664552 23.6222112,10.3555912 21.5881973,10.3915549 C21.5964855,8.82376157 21.5448723,7.2454788 21.6669357,5.68105705 C24.5143291,5.82154032 27.4788884,6.56329201 30.3255283,6.42655496 C31.766555,6.35724988 33.3654353,5.43530497 32.6368221,3.69630934 C32.0121888,2.20606276 30.1149312,2.40985716 28.792954,2.35066687 C27.1398233,2.27611708 25.4848088,2.23790563 23.8313013,2.18096308 C22.6068996,2.13900541 20.8260543,1.73628668 19.6721027,2.28847961 C17.3095724,3.41833976 18.121445,7.29867513 18.1873743,9.39955568 C18.2706336,12.0657409 18.2721406,14.6678658 18.3644416,17.3561538 C18.4484544,19.7885748 18.3271445,22.9972128 21.2159792,23.6808981 C24.1051906,24.364958 27.4611816,23.7142395 30.4084109,23.8565959 C31.6166129,23.9150369 33.2693669,24.2671816 33.8631075,22.8608504 C34.4319834,21.512211 33.1326106,20.086774 31.7209696,20.4381695"
            fill="#FFFFFF"
          />
          <path
            id="I"
            d="M8.41021607,5.87934286 C10.7314099,6.38056324 11.3520318,8.89406466 11.4306011,11.0286326 C11.4842397,12.4898438 11.613048,12.4018284 10.4273316,12.768689 C9.23708235,13.1371074 7.50704692,12.9377097 6.28808963,12.8851342 C3.74516418,12.7756991 4.0526421,12.6070678 4.00353629,9.93973422 C3.99220418,9.31505862 3.52947636,6.4362544 3.89625898,6.02967003 C4.37220759,5.5015777 7.73482232,5.8267673 8.41021607,5.87934286 M13.4870013,20.7181143 C12.1966517,19.2140637 10.9010138,17.7773878 9.45277018,16.4318428 C11.6107816,16.3722571 13.9557729,15.9594416 14.7229567,13.6130136 C15.3711534,11.6307201 14.8079476,8.6132722 14.05474,6.74080322 C13.0612917,4.27092005 10.9928039,2.62238402 8.42003723,2.26253349 C6.62389782,2.01172858 2.14242611,1.58956627 0.799948834,2.97327723 C-0.664537495,4.48161175 0.351952758,8.62222952 0.4422319,10.4701632 C0.602014649,13.7411422 0.486049391,16.987586 0.285471047,20.2550599 C0.220500284,21.3096868 -0.296621662,23.0423437 0.243919977,23.9918195 C0.843766325,25.0456674 2.30296434,25.3089347 3.21255502,24.5288691 C4.19693763,23.6845445 3.74176455,22.6513373 3.68132663,21.5678912 C3.58802559,19.8917044 3.75574082,18.1644997 3.85546339,16.4937651 C5.46348977,17.806207 7.10551249,19.0851563 8.61683821,20.5163799 C10.1096548,21.9300785 11.1809169,23.7184265 12.6076296,25.143419 C13.618076,26.1528699 15.4266807,26.5676327 15.9381366,24.6947742 C16.377067,23.0871303 14.3667507,21.7435326 13.4870013,20.7181143"
            fill="#FFFFFF"
          />
        </g>
      </g>
    </g>
  </g>
</svg>

<svg>
  <g id="Clothing/Graphic-Shirt" transform="translate(0 170)">
    <defs>
      <path id="react-path-1153" d="M165.624 29.268C202.76 32.138 232 63.18 232 101.052V110H32v-8.948c0-38.217 29.775-69.48 67.393-71.855A14.107 14.107 0 0 0 99 32.5C99 44.374 113.998 54 132.5 54c18.502 0 33.5-9.626 33.5-21.5 0-1.098-.128-2.178-.376-3.232Z"/>
    </defs>
    <mask id="react-mask-1154" fill="#fff">
      <use href="#react-path-1153"/>
    </mask>
    <use id="Clothes" fill="#E6E6E6" fill-rule="evenodd" href="#react-path-1153"/>
    <g id="Color/Palette/" fill="var(--avataaar-shirt-color)" fill-rule="evenodd" mask="url(#react-mask-1154)">
      <path id="Color" d="M0 0h264v110H0z"/>
    </g>
    <g id="Clothing/Graphic/Resist" fill-rule="evenodd" stroke-width="1">
      <g id="Resist" fill="#FFF" transform="translate(80 67)">
        <path id="!" d="M102.565 21.071c-3.082-.666-5.192 3.535-1.912 4.784 2.815 1.072 4.845-4.145 1.912-4.784"/>
        <path id="H" d="M101.191 18c3.657 0 2.308-5.981 2.321-7.965.014-2.137 1.545-8.596-.89-9.734-4.216-1.971-3.06 6.325-3.034 7.968.028 1.816.167 3.72-.229 5.508-.35 1.58-1.129 4.223 1.832 4.223"/>
        <path id="C" d="M96.058 1.974c-1.082-.622-2.801-.32-3.987-.374-1.349-.06-2.69-.195-4.035-.293-2.177-.16-4.956-.563-7.118-.068-1.226.28-2.338 1.225-1.761 2.608.62 1.49 2.303 1.105 3.58 1.03.585-.035 2.033-.29 2.605-.089.997.35.573-.108.801 1.067.349 1.807.14 4 .125 5.838-.026 3.174-.036 6.364-.103 9.536-.026 1.236-.44 2.632.757 3.448.998.68 2.216.225 2.733-.793.514-1.013.026-3.067-.029-4.196-.066-1.347-.136-2.676-.097-4.025.104-3.585.282-7.167.368-10.754.943.046 1.922.018 2.856.15.683.095 1.665.535 2.322.5 1.9-.1 2.694-2.587.983-3.585"/>
        <path id="A" d="M67.722 8.813c-.012-.053-.082-.644 0 0m-.037-.276c.004.025 0 .008 0 0m1.432-3.11c3.416-3.981 4.583 4.347 7.246 3.995 4.26-.564-.941-6.953-2.669-7.776-3.515-1.675-6.605.08-8.277 3.267-2.098 4-.77 6.708 3.258 8.444 1.471.635 7.04 2.528 5.53 4.959-.76 1.224-3.526 1.329-4.7 1.086-2.356-.486-1.989-2.086-3.135-3.573-1.033-1.34-3.03-.947-3.342.781-.245 1.358 1.17 3.425 2.115 4.38 2.233 2.256 6.04 2.437 8.887 1.41 4.386-1.583 4.917-5.71 1.806-8.905-1.749-1.795-3.933-2.34-6.113-3.418-2.645-1.306-2.15-2.39-.606-4.65"/>
        <path id="E" d="M58.75 20.568c-.564-4.825-.696-9.717-.78-14.563-.027-1.554.706-5.206-1.453-5.865-2.915-.89-2.528 2.692-2.467 4.164.205 4.913.842 9.789 1.071 14.696.073 1.557-.429 4.574 1.831 4.946 2.75.454 2.008-2.081 1.798-3.378"/>
        <path id="P" d="M49.472 4.68c-2.36-3.159-7.154-3.669-10.09-.758-2.072 2.054-3.377 6.92-1.416 9.403 2.124 2.691 7.355.332 8.725 3.383 1.682 3.743-2.73 5.148-5.074 2.663-.843-.894-.659-2.454-1.9-3.007-1.763-.785-2.864.928-2.517 2.359.848 3.5 4.652 5.39 8.101 5.272 3.768-.13 5.402-2.977 5.163-6.4-.33-4.735-3.985-5.476-7.99-5.998-1.698-.22-1.92-.2-1.816-1.952.128-2.118 1.37-4.567 3.991-4.063 2.106.405 2.294 3.571 4.455 3.718 3.496.239 1.256-3.433.368-4.62"/>
        <path id="M" d="M31.721 20.438c-1.337.32-2.963.098-4.327.073-1.053-.019-4.574.427-5.261-.296-.76-.8-.513-3.247-.545-4.286-.046-1.454-.404-1.67.872-2 .749-.193 1.907-.096 2.682-.131 1.515-.07 3.465.21 4.93-.088 1.37-.28 2.502-1.751 1.25-3.004-.886-.888-2.542-.411-3.631-.386-2.034.046-4.069.036-6.103.072.008-1.568-.043-3.147.079-4.71 2.847.14 5.812.881 8.659.745 1.44-.07 3.04-.992 2.31-2.73-.624-1.49-2.521-1.287-3.843-1.346-1.653-.075-3.308-.113-4.962-.17-1.224-.042-3.005-.445-4.159.107-2.362 1.13-1.55 5.01-1.485 7.112.084 2.666.085 5.268.177 7.956.084 2.433-.037 5.641 2.852 6.325 2.89.684 6.245.033 9.192.176 1.209.058 2.861.41 3.455-.996.569-1.349-.73-2.774-2.142-2.423"/>
        <path id="I" d="M8.41 5.88c2.321.5 2.942 3.014 3.02 5.149.054 1.46.183 1.373-1.003 1.74-1.19.368-2.92.169-4.139.116-2.543-.11-2.235-.278-2.284-2.945-.012-.625-.475-3.504-.108-3.91.476-.528 3.839-.203 4.514-.15m5.077 14.838c-1.29-1.504-2.586-2.94-4.034-4.286 2.158-.06 4.503-.473 5.27-2.819.648-1.982.085-5-.668-6.872-.994-2.47-3.062-4.119-5.635-4.478-1.796-.251-6.278-.673-7.62.71C-.665 4.482.352 8.623.442 10.47c.16 3.271.044 6.518-.157 9.785-.064 1.055-.582 2.787-.041 3.737.6 1.054 2.059 1.317 2.969.537.984-.844.529-1.878.468-2.961-.093-1.676.075-3.404.174-5.074 1.608 1.312 3.25 2.591 4.762 4.022 1.493 1.414 2.564 3.202 3.99 4.627 1.011 1.01 2.82 1.425 3.331-.448.44-1.608-1.571-2.951-2.451-3.977"/>
      </g>
    </g>
  </g>
</svg>
